svg/fluentui-system-icons/ic_fluent_vehicle_truck_profile_16_filled.svg

<svg width="16" height="16" viewBox="0 0 16 16" fill="none" xmlns="http://www.w3.org/2000/svg">
<path d="M2 3.75C2 2.7835 2.7835 2 3.75 2H9.25016C10.2167 2 11.0002 2.7835 11.0002 3.75V4H11.382C11.9501 4 12.4695 4.321 12.7236 4.82918L13.8416 7.06525C13.9458 7.27353 14 7.5032 14 7.73607V11C14 11.8284 13.3284 12.5 12.5 12.5H11.937C11.715 13.3626 10.9319 14 10 14C9.06808 14 8.28503 13.3626 8.06301 12.5H6.93699C6.71497 13.3626 5.93192 14 5 14C4.01321 14 3.19333 13.2853 3.02971 12.3454C2.4225 12.0708 2 11.4597 2 10.75V3.75ZM11.0002 5V7H12.691L11.8292 5.27639C11.7445 5.107 11.5714 5 11.382 5H11.0002ZM5 11C4.44772 11 4 11.4477 4 12C4 12.5523 4.44772 13 5 13C5.55228 13 6 12.5523 6 12C6 11.4477 5.55228 11 5 11ZM9 12C9 12.5523 9.44772 13 10 13C10.5523 13 11 12.5523 11 12C11 11.4477 10.5523 11 10 11C9.44772 11 9 11.4477 9 12Z" fill="#212121"/>
</svg>

<svg xmlns="http://www.w3.org/2000/svg" width="16" height="16"><path d="M2 3.75C2 2.784 2.784 2 3.75 2h5.5c.967 0 1.75.784 1.75 1.75V4h.382a1.5 1.5 0 0 1 1.342.83l1.118 2.235a1.5 1.5 0 0 1 .158.671V11a1.5 1.5 0 0 1-1.5 1.5h-.563a2 2 0 0 1-3.874 0H6.937a2 2 0 0 1-3.907-.155A1.75 1.75 0 0 1 2 10.75v-7ZM11 5v2h1.691l-.862-1.724A.5.5 0 0 0 11.382 5H11Zm-6 6a1 1 0 1 0 0 2 1 1 0 0 0 0-2Zm4 1a1 1 0 1 0 2 0 1 1 0 0 0-2 0Z"/></svg>
